terraform/modules/app/icons/generic.svg

<svg height="50" viewBox="0 0 50 50" width="50" xmlns="http://www.w3.org/2000/svg"><path d="m6 48c0 .55.45 1 1 1h36c.55 0 1-.45 1-1v-46c0-.55-.45-1-1-1h-24.63c-.01 0-.03.01-.04.01-.13.01-.25.03-.36.08-.04.02-.07.05-.11.08-.07.05-.15.09-.21.15-.01.01-.01.01-.02.01l-11.33 10.95c-.02.02-.02.04-.04.05-.08.09-.15.18-.19.29-.03.07-.03.14-.04.21 0 .06-.03.11-.03.17 0 .01.01.02.01.03s-.01.03-.01.04zm11.37-36h-7.9l7.9-7.64zm24.63 35h-34v-33h10.37c.27 0 .52-.11.71-.29s.29-.44.29-.71v-10h22.63z"/></svg>

<svg height="50" width="50" xmlns="http://www.w3.org/2000/svg"><path d="M6 48c0 .55.45 1 1 1h36c.55 0 1-.45 1-1V2c0-.55-.45-1-1-1H18.37c-.01 0-.03.01-.04.01-.13.01-.25.03-.36.08-.04.02-.07.05-.11.08-.07.05-.15.09-.21.15-.01.01-.01.01-.02.01L6.3 12.28c-.02.02-.02.04-.04.05a.91.91 0 00-.19.29c-.03.07-.03.14-.04.21 0 .06-.03.11-.03.17 0 .01.01.02.01.03s-.01.03-.01.04zm11.37-36h-7.9l7.9-7.64zM42 47H8V14h10.37c.27 0 .52-.11.71-.29s.29-.44.29-.71V3H42z"/></svg>
